X: 21033
T: the Gimblet
%R: march
B: James Oswald "The Caledonian Pocket Companion" v.2 p.103 #3
Z: 2019 John Chambers <jc:trillian.mit.edu>
M: 2/4
L: 1/8
K: D
|:"_Brisk"\
dBAF | A2AB | d2 (3(efg) | feef |\
dBAF | A2AB | d2 (3(ede) | fdd2 :|
|:\
fddf | (a2g)f | gaba | geef |\
dBAF | A2AB | d2 (3(ede) | fdd2 :|
